X: 17
T:Hibernian Dance (#93)
M:6/8
L:1/8
S:Clinton's Irish Melodies 1840
K:G
d|g2 d B2 G|A>GA fef|g2 d ded|c2 A A2 d|
g2 d B2 G|A>GA f2 e/2f/2|g2 d dec|BGG G2:|
|:d|gfg efg|abg fed|gfg aga|bgg gab|
c'bc' efg|abg fed|g2 d dec|BGG G2:||

